Numix/16/status/indicator-keyboard-Tr-4.svg

<?xml version="1.0" encoding="UTF-8" standalone="no"?>
<svg
   xmlns:dc="http://purl.org/dc/elements/1.1/"
   xmlns:cc="http://creativecommons.org/ns#"
   xmlns:rdf="http://www.w3.org/1999/02/22-rdf-syntax-ns#"
   xmlns:svg="http://www.w3.org/2000/svg"
   xmlns="http://www.w3.org/2000/svg"
   xmlns:sodipodi="http://sodipodi.sourceforge.net/DTD/sodipodi-0.dtd"
   xmlns:inkscape="http://www.inkscape.org/namespaces/inkscape"
   viewBox="0 0 16 16"
   id="svg2"
   version="1.1"
   inkscape:version="0.91 r13725"
   sodipodi:docname="indicator-keyboard-Tr-4.svg">
  <metadata
     id="metadata14">
    <rdf:RDF>
      <cc:Work
         rdf:about="">
        <dc:format>image/svg+xml</dc:format>
        <dc:type
           rdf:resource="http://purl.org/dc/dcmitype/StillImage" />
      </cc:Work>
    </rdf:RDF>
  </metadata>
  <defs
     id="defs12" />
  <sodipodi:namedview
     pagecolor="#ffffff"
     bordercolor="#666666"
     borderopacity="1"
     objecttolerance="10"
     gridtolerance="10"
     guidetolerance="10"
     inkscape:pageopacity="0"
     inkscape:pageshadow="2"
     inkscape:window-width="640"
     inkscape:window-height="480"
     id="namedview10"
     showgrid="false"
     inkscape:zoom="14.75"
     inkscape:cx="8"
     inkscape:cy="8"
     inkscape:window-x="65"
     inkscape:window-y="24"
     inkscape:window-maximized="0"
     inkscape:current-layer="svg2" />
  <path
     style="fill:#ececec;fill-opacity:1"
     d="M 1.5996094 0 C 0.71320937 2.9605947e-16 0 0.71320937 0 1.5996094 L 0 14.400391 C 2.9605947e-16 15.286791 0.71320937 16 1.5996094 16 L 14.400391 16 C 15.286791 16 16 15.286791 16 14.400391 L 16 1.5996094 C 16 0.71320937 15.286791 0 14.400391 0 L 1.5996094 0 z M 2.5605469 4.859375 L 7.1699219 4.859375 L 7.1699219 5.390625 L 5.171875 5.390625 L 5.171875 11.095703 L 4.5585938 11.095703 L 4.5585938 5.390625 L 2.5605469 5.390625 L 2.5605469 4.859375 z M 9.4335938 6.3535156 C 9.6255938 6.3535156 9.8046562 6.3684375 9.9726562 6.3984375 C 10.146657 6.4284375 10.266031 6.4582812 10.332031 6.4882812 L 10.214844 6.9921875 C 10.166844 6.9681875 10.067969 6.9439219 9.9179688 6.9199219 C 9.7739687 6.8899219 9.5817969 6.875 9.3417969 6.875 C 9.0897969 6.875 8.8864688 6.8936875 8.7304688 6.9296875 C 8.5804687 6.9656875 8.4815938 6.9955312 8.4335938 7.0195312 L 8.4335938 11.095703 L 7.8496094 11.095703 L 7.8496094 6.6582031 C 7.9996094 6.5922031 8.2067031 6.5269375 8.4707031 6.4609375 C 8.7347031 6.3889375 9.0555938 6.3535156 9.4335938 6.3535156 z M 12.539062 8.8417969 L 12.935547 8.8417969 L 12.935547 11.486328 L 13.439453 11.486328 L 13.439453 11.796875 L 12.935547 11.796875 L 12.935547 12.896484 L 12.5625 12.896484 L 12.5625 11.796875 L 10.724609 11.796875 L 10.724609 11.5625 C 10.794809 11.3753 10.892778 11.163688 11.017578 10.929688 C 11.146278 10.695687 11.289319 10.456638 11.449219 10.210938 C 11.609119 9.9652374 11.783503 9.7261874 11.970703 9.4921875 C 12.157903 9.2542875 12.347963 9.0367969 12.539062 8.8417969 z M 12.5625 9.2695312 C 12.426 9.4099313 12.286884 9.5706063 12.146484 9.7539062 C 12.006084 9.9372063 11.870888 10.129225 11.742188 10.328125 C 11.617387 10.523125 11.499825 10.719069 11.390625 10.917969 C 11.281425 11.116869 11.191287 11.306928 11.117188 11.486328 L 12.5625 11.486328 L 12.5625 9.2695312 z "
     id="path4" />
</svg>

<svg xmlns="http://www.w3.org/2000/svg" viewBox="0 0 16 16">
 <path d="m 1.6 0 c -0.886 0 -1.6 0.713 -1.6 1.6 l 0 12.801 c 0 0.886 0.713 1.6 1.6 1.6 l 12.801 0 c 0.886 0 1.6 -0.713 1.6 -1.6 l 0 -12.801 c 0 -0.886 -0.713 -1.6 -1.6 -1.6 l -12.801 0 z m 0.961 4.859 l 4.609 0 l 0 0.531 l -1.998 0 l 0 5.705 l -0.613 0 l 0 -5.705 l -1.998 0 l 0 -0.531 z m 6.873 1.494 c 0.192 0 0.371 0.015 0.539 0.045 c 0.174 0.03 0.293 0.06 0.359 0.09 l -0.117 0.504 c -0.048 -0.024 -0.147 -0.048 -0.297 -0.072 c -0.144 -0.03 -0.336 -0.045 -0.576 -0.045 c -0.252 0 -0.455 0.019 -0.611 0.055 c -0.15 0.036 -0.249 0.066 -0.297 0.09 l 0 4.076 l -0.584 0 l 0 -4.437 c 0.15 -0.066 0.357 -0.131 0.621 -0.197 c 0.264 -0.072 0.585 -0.107 0.963 -0.107 z m 3.105 2.488 l 0.396 0 l 0 2.645 l 0.504 0 l 0 0.311 l -0.504 0 l 0 1.1 l -0.373 0 l 0 -1.1 l -1.838 0 l 0 -0.234 c 0.07 -0.187 0.168 -0.399 0.293 -0.633 c 0.129 -0.234 0.272 -0.473 0.432 -0.719 c 0.16 -0.246 0.334 -0.485 0.521 -0.719 c 0.187 -0.238 0.377 -0.455 0.568 -0.65 z m 0.023 0.428 c -0.136 0.14 -0.276 0.301 -0.416 0.484 c -0.14 0.183 -0.276 0.375 -0.404 0.574 c -0.125 0.195 -0.242 0.391 -0.352 0.59 c -0.109 0.199 -0.199 0.389 -0.273 0.568 l 1.445 0 l 0 -2.217 z" style="fill:#ececec;fill-opacity:1"/>
</svg>
